X: 2905
T: The Sutherland Reel
P: Sutherland's Reel
C:Trad. adapted by Muriel A. Johnstone
R:Reel (8x40) ABABB
B:RSCDS 29-5
Z:Anselm Lingnau <anselm@strathspey.org>
M:2/4
L:1/16
K:A
"A"e2fg a2f2|e2c2 a4|e2fg a2c2|"A"e4 "D"a2gf|
"A"e2fg a2f2|e2c2 agfe|"G"d2B2 =g2B2|d4 f2ed||
"A"e2A2 c2A2|eaAB c2cd|efed c2A2|"A"e4 a2gf|
"A"e2AB c2A2|eaAB c3e|"G"dB=GB dB=gB|"G"d4 f4|]
%%center Book29/2905-Sutherland_Reel-AL.abc

%%sep 2 1 500
%%sep 1 1 500

